X: 6569
T: Cathie & Jim Lambie
R: jig
M: 6/8
K: Gmajor
D|:GFG BAG|ECE AGE|DEF GAB|cBcA2D|
GFG BAG|ECE AGE|DBB cAF|1 AGGG2D:|2 AGG Gef||
|:gfg dBG|ecG dBG|gfg dBG|
[1ABc def|gfg dBG|ecG dBG|DBB cAF|AGG Gef:|
[2cBcA2D|GFG BAG|ECE AGE|DBB cAF|AGGG2||

